X:380
T:Orange And The Green
T:Rising Of The Moon
S:Comando list, 7/97, Peter Freitag
M:4/4
Q:126
K:D
DE F2 F2 F2| E2 F2 A2 A2| F2 F2 E2 E2| F2 E4 AA|\
B2 G2 d2 c2| B2 A2 F2 D2| E2 D2 D2 E2| D4 z4||

